www/assets/icons/picture_as_pdf.svg

<svg xmlns="http://www.w3.org/2000/svg" width="24" height="24" viewBox="0 0 24 24" fill='currentColor'><path d="M20 2H8c-1.1 0-2 .9-2 2v12c0 1.1.9 2 2 2h12c1.1 0 2-.9 2-2V4c0-1.1-.9-2-2-2m-8.5 7.5c0 .83-.67 1.5-1.5 1.5H9v2H7.5V7H10c.83 0 1.5.67 1.5 1.5zm5 2c0 .83-.67 1.5-1.5 1.5h-2.5V7H15c.83 0 1.5.67 1.5 1.5zm4-3H19v1h1.5V11H19v2h-1.5V7h3zM9 9.5h1v-1H9zM4 6H2v14c0 1.1.9 2 2 2h14v-2H4zm10 5.5h1v-3h-1z"/></svg>

<svg width="24" height="24" viewBox="0 0 24 24" xmlns="http://www.w3.org/2000/svg" fill='currentColor'><path d="M20 2H8C6.9 2 6 2.9 6 4V16C6 17.1 6.9 18 8 18H20C21.1 18 22 17.1 22 16V4C22 2.9 21.1 2 20 2ZM11.5 9.5C11.5 10.33 10.83 11 10 11H9V13H7.5V7H10C10.83 7 11.5 7.67 11.5 8.5V9.5ZM16.5 11.5C16.5 12.33 15.83 13 15 13H12.5V7H15C15.83 7 16.5 7.67 16.5 8.5V11.5ZM20.5 8.5H19V9.5H20.5V11H19V13H17.5V7H20.5V8.5ZM9 9.5H10V8.5H9V9.5ZM4 6H2V20C2 21.1 2.9 22 4 22H18V20H4V6ZM14 11.5H15V8.5H14V11.5Z"/></svg>
